!!!!SEGMENT: pl-wtm--r-563-m--002_moniuszko-stanislaw--sonety-krymskie-burza.krn
!!!cenid: 18xx:2984
!!!COM: Moniuszko, Stanisław
!!!COM-rismid: pe30008351
!!!CDT: 1819/05/05-1872/06/04
!!!CNT: Polish
!!!GTL: Sonety krymskie
!!!OTL: Burza
!!!PDT: 1867
!!!AGN: Secular
!!!SMS-siglum: PL-Wtm
!!!SMS-shelfmark: R 563/M
!!!SMS-shelfwork: 002 G
!!!SMS-variant:
!!!SMS-altvar:
!!!NIFC-rismid: 1001096424
!!!URL-scan: http://repozytorium.nifc.pl/skany/pl-wtm-nut--r563m
!!!ONB-nifc: UWAGA: zawiera Sonety: 1. Cisza morska, 2. Burza, 3. Epilog
!!!AIN: 1 empty 1 forte
!!!key:
**kern	**kern	**kern	**text
*part2	*part2	*part1	*part1
*staff3	*staff2	*staff1	*staff1
*Iforte	*Iforte	*Iempty	*
*I"Fortepian	*I"Fortepian	*I"Głos solowy	*
*clefF4	*clefG2	*clefF4	*
*k[f#]	*k[f#]	*k[f#]	*
*f:	*f:	*f:	*
*M6/8	*M6/8	*M6/8	*
*all\right	*all\right	*all\right	*
=1	=1	=1	=1
!	!	!LO:TX:a:t=Chór.\ntacet.	!
2.ryy	2.ryy	2.ryy	.
=2||	=2||	=2||	=2||
*k[]	*k[]	*k[]	*
*	*	*M6/8	*
!	!LO:TX:t=P:problem=przy kluczu fn	!	!
!	!LO:N:vis=4	!LO:TX:t=P:problem=oznaczenie metryczne w kolorze czerwonym	!
[2.CC/	4.c< 4.E</	2.r	.
.	(4.cc\	.	.
=3	=3	=3	=3
*rep	*	*	*
2.CC/_	4.b-X\	2.r	.
.	4.a-X\	.	.
*Xrep	*	*	*
=4	=4	=4	=4
*rep	*	*	*
2.CC/_	4.g/	4r	.
.	.	8r	.
!	!	!LO:TX:t=P:global:problem=tekst słowny podkreślony	!
.	4.a-X/	[4.c\	Je-
*Xrep	*	*	*
=5	=5	=5	=5
*rep	*	*	*
2.CC/_	4.e-X/	4.c\]	.
.	4.f/	4c\	-den
.	.	8c\	po-
*Xrep	*	*	*
=6	=6	=6	=6
*rep	*	*2\right	*
2.CC/_	4.g/	[2.c\	-drož-
.	4.en/	.	.
*Xrep	*	*	*
=7	=7	=7	=7
*rep	*	*	*
2.CC/_	4.c/	4.c\]	.
.	4.d/)	4.c\	-ny
*Xrep	*	*	*
!!LO:LB:g=original
=8	=8	=8	=8
*rep	*	*	*
2.CC/_	4.e/	2.c\	sie-
.	4.c/	.	.
*Xrep	*	*	*
=9	=9	=9	=9
*rep	*	*	*
2.CC/]	4.G</	4.c\	-dział
.	4.E</	4.c\	w_mil-
*Xrep	*	*	*
=10	=10	=10	=10
*^	*	*	*
4.ryy	4CC\	4C</	2.c\	-cze-
.	8r	16ryy	.	.
.	.	16e 16c/	.	.
4.G/	[4.C\	4e 4c/	.	.
.	.	16r	.	.
.	.	16d 16A/	.	.
=11	=11	=11	=11	=11
*2\right	*	*	*	*
4.F#X/	2.C_\	4d 4A/	4C/	-niu
.	.	16r	8r	.
.	.	16a 16B/	.	.
4.Fn/	.	4a 4B/	4r	.
.	.	16r	8r	.
.	.	16e 16c/	.	.
=12	=12	=12	=12	=12
4.E/	4.C\]	4e 4c/	4r	.
.	.	16r	8r	.
.	.	16cc 16e/	.	.
4.F#X/	4.AA\	4cc 4e/	4c\	i
.	.	16r	8B\	po-
.	.	16b 16e/	.	.
=13	=13	=13	=13	=13
4.G/	2.BB\	4b 4e/	2.B\	-my-
.	.	16r	.	.
.	.	16f#X 16d#X/	.	.
4.B/	.	4f# 4d#/	.	.
.	.	16r	.	.
.	.	16g 16e/	.	.
=14	=14	=14	=14	=14
!	!	!	!LO:TX:a:i:t=a tempo.:note=podkreślone	!
4.E/	4.E\	4g 4e/	4G\	-ślał.
.	.	16r	8r	.
.	.	16d 16B/	.	.
4.D/	4.D [4.GG\	4d 4B/	4r	.
.	.	16r	8e@\	Szczę-
.	.	16c#X< 16A#X</	.	.
=15	=15	=15	=15	=15
4.E\	2.GG\]	4c#X< 4A#X</	2.e\	-śli-
.	.	16rc<	.	.
.	.	16cn< 16An</	.	.
4.F#X\	.	4c< 4A</	.	.
.	.	16rc<	.	.
.	.	16B< 16G</	.	.
*v	*v	*	*	*
!!LO:PB:g=original
=16	=16	=16	=16
4.GG\	4B< 4G</	4d\	-wy
.	16r	8r	.
.	16g 16B-X</	.	.
4.C#X\	4g 4B-</	4.e@\	kto
.	16r	.	.
.	16f 16A</	.	.
=17	=17	=17	=17
!	!	!LO:N:vis=4	!
4.D\	4f 4A</	4.f@\	si-
.	16r	.	.
.	16d 16B/	.	.
4.G 4.GG\	4d 4B/	4G@\	-ły
.	16r	8B@\	po-
.	16e 16c/	.	.
=18	=18	=18	=18
*^	*	*	*
4.G/	4.C\	4e 4c/	8c@\	-stra-
.	.	.	8c@\	-da
.	.	16r	8r	.
.	.	16g 16e/	.	.
4.B-X/	[4.C\	4g 4e/	(4.G\	al-
.	.	16r	.	.
.	.	16f#X 16d#X/	.	.
=19	=19	=19	=19	=19
4.A/	2.C\]	4f#X 4d#X/	4.F#X\)	.
.	.	16r	.	.
.	.	16fn 16dn/	.	.
4.A-X/	.	4f 4d/	4.Fn\	-bo
.	.	16r	.	.
.	.	16e 16c/	.	.
*v	*v	*	*	*
!!LO:LB:g=original
=20	=20	=20	=20
4.G 4.C\	4e 4c/	(4.E\	mo-
.	16r	.	.
.	16ee 16g/	.	.
4.c 4.A\	4ee 4g/	4.e\)	.
.	16r	.	.
.	16dd 16f#X/	.	.
=21	=21	=21	=21
4.A 4.D\	4dd 4f#X/	4.d\	-dlić
.	16r	.	.
.	16cc 16a/	.	.
4.d 4.F#X\	4cc 4a/	4.c\	się
.	16r	.	.
.	16b 16g/	.	.
=22	=22	=22	=22
4.G\	4b 4g/	4.B\	u-
.	16r	.	.
.	16dd 16g/	.	.
4.B 4.E\	4dd 4g/	4d\	-mie
.	16r	8r	.
.	16a 16d/	.	.
=23	=23	=23	=23
*^	*	*	*
[2.A/	4.F\	4a 4d/	4r	.
.	.	16r	8r	.
.	.	16ee 16g\	.	.
.	4.C#X\	4ee 4g\	4.e\	lub
.	.	16r	.	.
.	.	16ff 16f\	.	.
=24	=24	=24	=24	=24
4.A/]	4.D\	4ff 4f\	2.f\	ma
.	.	16r	.	.
.	.	16a 16f/	.	.
[4.c\	4.F\	4a 4f/	.	.
.	.	16r	.	.
.	.	16a 16f/	.	.
*v	*v	*	*	*
=25	=25	=25	=25
4.c] 4.D\	4a 4f/	4.A\	się
.	16r	.	.
.	16b 16f/	.	.
4.d 4.G\	4b 4f/	4.B\	s kim
.	16r	.	.
.	16cc 16f/	.	.
=26	=26	=26	=26
[4.A-X [4.AA-X/	4cc 4f/	2.c\	że-
.	16r	.	.
.	16cc 16c/	.	.
4A-] 4AA-/]	4cc 4c/	.	.
8G 8GG/	16r	.	.
.	16cc 16c/	.	.
=27	=27	=27	=27
!	!LO:N:vis=2	!LO:N:vis=4	!
2.C 2.CC/	2.cc 2.c/	2.C/	-gnać.
==	==	==	==
*-	*-	*-	*-
!!!system-decoration: {(s1,s2,s3)}
!!!RDF**kern: > = above
!!!RDF**kern: < = below
!!!RDF**kern: @ = marked note, color=gray
!!!ENC: Andrzej Gręziak
!!!END: 2021-08-18
!!!ENC: Andrzej Kubiczek
!!!END: 2021-09-26
